icon-svg/devicesTap.svg

<svg xmlns="http://www.w3.org/2000/svg" fill="#44739e" viewBox="0 0 24 24"><path d="M22 13c-1.104 0-2 .896-2 2s.896 2 2 2 2-.896 2-2-.896-2-2-2m0 6c-2.206 0-4-1.794-4-4s1.794-4 4-4 4 1.794 4 4-1.794 4-4 4m-6 7c-2.206 0-4-1.794-4-4s1.794-4 4-4 4 1.794 4 4-1.794 4-4 4m-6-13c1.104 0 2 .896 2 2s-.896 2-2 2-2-.896-2-2 .896-2 2-2m-4 2c0-2.206 1.794-4 4-4s4 1.794 4 4-1.794 4-4 4-4-1.794-4-4m10 5c1.104 0 2 .896 2 2s-.896 2-2 2-2-.896-2-2 .896-2 2-2m0-16C9.373 4 4 9.373 4 16s5.373 12 12 12 12-5.373 12-12S22.627 4 16 4"/></svg>

<?xml version="1.0" encoding="UTF-8"?>
<svg width="32px" height="32px" viewBox="0 0 32 32" version="1.1" fill="#44739e" xmlns="http://www.w3.org/2000/svg" xmlns:xlink="http://www.w3.org/1999/xlink">
            <path d="M22,13 C20.896,13 20,13.896 20,15 C20,16.104 20.896,17 22,17 C23.104,17 24,16.104 24,15 C24,13.896 23.104,13 22,13 M22,19 C19.794,19 18,17.206 18,15 C18,12.794 19.794,11 22,11 C24.206,11 26,12.794 26,15 C26,17.206 24.206,19 22,19 M16,26 C13.794,26 12,24.206 12,22 C12,19.794 13.794,18 16,18 C18.206,18 20,19.794 20,22 C20,24.206 18.206,26 16,26 Z M10,13 C11.104,13 12,13.896 12,15 C12,16.104 11.104,17 10,17 C8.896,17 8,16.104 8,15 C8,13.896 8.896,13 10,13 Z M6,15 C6,12.794 7.794,11 10,11 C12.206,11 14,12.794 14,15 C14,17.206 12.206,19 10,19 C7.794,19 6,17.206 6,15 Z M16,20 C17.104,20 18,20.896 18,22 C18,23.104 17.104,24 16,24 C14.896,24 14,23.104 14,22 C14,20.896 14.896,20 16,20 Z M16,4 C9.373,4 4,9.373 4,16 C4,22.627 9.373,28 16,28 C22.627,28 28,22.627 28,16 C28,9.373 22.627,4 16,4"></path>
</svg>
